!!!COM: Bach, Johann Sebastian
!!!OTL: 276. Lobt Gott, ihr Christen, allzugleich
!!!ONM: No. 276
!!!OCL: Erk
!!!SCA: BWV 375
!!!YOE: Riemenschneider, Albert
!!!OPR: 371 Harmonized Chorales and 69 Chorale Melodies with Figured Bass
!!!OPT: Bach Chorale Harmonizations
**harm	**root	**kern	**kern	**kern	**kern
!	!	!bass	!tenor	!alto	!sprno
*Iorgan	*Iorgan	*Iorgan	*Iorgan	*Iorgan	*Iorgan
*k[f#c#g#]	*k[f#c#g#]	*k[f#c#g#]	*k[f#c#g#]	*k[f#c#g#]	*k[f#c#g#]
*A:	*A:	*A:	*A:	*A:	*A:
*met(c)	*met(c)	*met(c)	*met(c)	*met(c)	*met(c)
*M4/4	*M4/4	*M4/4	*M4/4	*M4/4	*M4/4
*MM60	*MM60	*MM60	*MM60	*MM60	*MM60
I	4GG	4A	4c#	4e	4a
=1	=1	=1	=1	=1	=1
Vb	4DD	4G#	4B	8e	4ee
.	.	.	.	8f#	.
V	4DD	4E	8B	4g#	4ee
.	.	.	16c#	.	.
.	.	.	16d	.	.
I	4GG	8A	8c#	4a	4ee
.	.	8B	8B	.	.
I	4GG	8c#	4A	8a	4ee
.	.	8A	.	8g	.
=2	=2	=2	=2	=2	=2
IV	4CC	4d	4A	8f#	4ff#
.	.	.	.	8a	.
V	4DD	4e	4e	4g#y	8ee
.	.	.	.	.	8dd
I;	4GG;	4A;	4e;	4a;	4cc#;
Vb	4DD	4G#	4e	4b	4b
=3	=3	=3	=3	=3	=3
vi	4EE	4F#	4A	4a	8cc#
.	.	.	.	.	8dd#
iii	4BB	8c#	8e	4g#	4ee
.	.	8B	8d#	.	.
vi7b	4EE	4A	8c#	4f#	4ee
.	.	.	8f#	.	.
V/V	4AA	4B	8b	4f#	4dd#
.	.	.	8a	.	.
=4	=4	=4	=4	=4	=4
V;	2.DD;	2.E;	2.g#;	2.e;	2.ee;
V	4DD	4E	8e	4g#	4ee
.	.	.	8d	.	.
=5	=5	=5	=5	=5	=5
I	4GG	8A	8c#	4a	4ee
.	.	8B	8d	.	.
iii	4BB	8c#	8e	4g#	4ee
.	.	8B	8d	.	.
I	2GG	4.A	8c#	8a	8ee
.	.	.	8d	8b	8dd
.	.	.	4e	8cc#	8cc#
.	.	8B	.	8b	8dd
=6	=6	=6	=6	=6	=6
!!linebreak: 2
Ib	4GG	4c#	4e	4a	8ee
.	.	.	.	.	8dd
IV7	4CC	4d	4f#	8a	4cc#
.	.	.	.	16g#	.
.	.	.	.	16f#	.
V;	4DD;	4e;	4B;	4g#;	4b;
iii	4BB	4c#	8c#	4g#	4ee
.	.	.	8B	.	.
=7	=7	=7	=7	=7	=7
IVb	4CC	[4F#	8A	4a	4dd
.	.	.	8B	.	.
vi	8EE	8F#]	8c#	8a	4cc#
iiib	8BB	8E	8e	8g#	.
iib	4AA	8D	4f#	4f#	4b
.	.	8BB	.	.	.
V	4DD	8E	4e	4g#	4b
.	.	8d	.	.	.
=8	=8	=8	=8	=8	=8
Ib	4GG	4c#	4e	4a	8a
.	.	.	.	.	8b
viib	4FF#	4B	4d	4g#	8cc#
.	.	.	.	.	8dd
viioD7/ii;	4GG#;	4A#;	4c#;	4g;	4ee;
V7b/ii	4EE	4AA#y	4c#	4f#	4ee
=9	=9	=9	=9	=9	=9
ii	4AA	4BB	8d	8f#	4dd
.	.	.	8e	8g#y	.
vi	4EE	8F#	4f#	8a	4cc#
.	.	8E	.	8g#	.
iib	4AA	8D	8f#	4f#	4b
.	.	8BB	8d	.	.
V	4DD	4E	8B	4g#	4b
.	.	.	16c#	.	.
.	.	.	16d	.	.
=10	=10	=10	=10	=10	=10
I;	2.GG;	2.AA;	2.c#;	2.e;	2.a;
==	==	==	==	==	==
*-	*-	*-	*-	*-	*-
!!!CDT: 1685/3//-1750/7/28
!!!OCY: Deutschland
!!!AGN: chorale
!!!AST: Baroque
!!!AIN: vox
!!!YOY: 1941
!!!PPP: New York; London
!!!PPR: G. Schirmer
!!!ENC: David Huron
!!!EED: David Huron
!!!YEN: United States of America
!!!YER: 1992
!!!YEC: Copyright 1992 David Huron
!!!YEM: Rights to all derivative electronic formats reserved.
!!!YER: March 20, 1996
!!!AMT: simple quadruple
!!!EEV: 1.1
!!chor2scor: -l 2 -s 0.6 -o %b.pmx
